X:1
T:Polka des nounous, Gouelou (TBI 2338)
Z:Roger Ngaret (Novembre 99)
C:Trad.
S:Tonio Breizh-Izel (Polig Monjarret)
A:Bretagne
M:4/4
L:1/8
Q:72
K:Eb
B,E G>G AF G2 |1 FE D>E F/E/D/C/ B,2 :|2 FE D>E FD E2 |:
EG B>B cA B2 |1 A/G/A F>A GF GE :|2 A/G/A F>A GF E2 |:
EB,/E/ G>B AF G2 | E/D/E F>A GE E2 :: BE G/A/G AF G2 |
EE/E/ E>F GE FG | EB G/F/G AF G2 | EE/E/ ED/E/ FD E2 ::
EB, GF/G/ AF E2 |1 ED/E/ CF DC B,2 :|2 ED/C/ B,C/D/ EG E2 |:
EG B/A/B cA B2 |1 GF/G/ E>B AF GE :|2 A F/G/ ED/E/ FD E2 |:
EE/G/ B>A GA F2 |1 FD E>C CB, B,2 :|2 FE/D/ B,D/E/ FE E2 |:
EB BA/G/ Ec B2 |1 AF/G/ E>B AF GE :|2 E/G/B GE FD E2 |]
